svg/regular/bx-window-alt.svg

<svg xmlns="http://www.w3.org/2000/svg" width="24" height="24"><path d="M20 3H4c-1.103 0-2 .897-2 2v14c0 1.103.897 2 2 2h16c1.103 0 2-.897 2-2V5c0-1.103-.897-2-2-2zm0 2 .001 4H4V5h16zM4 19v-8h16.001l.001 8H4z"/><path d="M14 6h2v2h-2zm3 0h2v2h-2z"/></svg>

<svg xmlns="http://www.w3.org/2000/svg" width="24" height="24" viewBox="0 0 24 24"><path d="M20,3H4C2.897,3,2,3.897,2,5v14c0,1.103,0.897,2,2,2h16c1.103,0,2-0.897,2-2V5C22,3.897,21.103,3,20,3z M20,5l0.001,4H4V5 H20z M4,19v-8h16.001l0.001,8H4z"/><path d="M14 6H16V8H14zM17 6H19V8H17z"/></svg>
